24x24/apps/computer-log-out.svg

<svg height="24" width="24" xmlns="http://www.w3.org/2000/svg"><circle cx="12" cy="12.5" opacity=".2" r="10"/><circle cx="12" cy="12" fill="#4caf50" r="10"/><path d="m12 2a10 10 0 0 0 -10 10 10 10 0 0 0 .01.291 10 10 0 0 1 9.99-9.791 10 10 0 0 1 9.99 9.709 10 10 0 0 0 .01-.209 10 10 0 0 0 -10-10z" fill="#f4f4f7" opacity=".2"/><path d="m11.818 5.503a6.995 6.995 0 0 0 -5.057 2.35 7.01 7.01 0 0 0 .033 9.33 7.028 7.028 0 0 0 9.284 1.02c1.09-.775-.075-2.407-1.163-1.63a5 5 0 0 1 -6.632-.727 4.988 4.988 0 0 1 -.023-6.666 5 5 0 0 1 6.627-.775c1.098.801 2.278-.875 1.152-1.637a6.992 6.992 0 0 0 -4.22-1.266zm4.182 3.497v2.5h-3a1 1 0 0 0 0 2h3v2.5l4.5-3.5z" opacity=".2"/><path d="m11.818 5.003a6.995 6.995 0 0 0 -5.057 2.35 7.01 7.01 0 0 0 .033 9.33 7.028 7.028 0 0 0 9.284 1.02c1.09-.775-.075-2.407-1.163-1.63a5 5 0 0 1 -6.632-.727 4.988 4.988 0 0 1 -.023-6.666 5 5 0 0 1 6.627-.774c1.098.801 2.278-.875 1.152-1.637a6.992 6.992 0 0 0 -4.22-1.266zm4.182 3.497v2.5h-3a1 1 0 0 0 0 2h3v2.5l4.5-3.5z" fill="#f4f4f7"/></svg>

<svg xmlns="http://www.w3.org/2000/svg" width="24" height="24" version="1"><circle style="opacity:.2" cx="12" cy="12.5" r="10"/><circle style="fill:#4caf50" cx="12" cy="12" r="10"/><path style="opacity:.2;fill:#f4f4f7" d="M12 2A10 10 0 0 0 2 12a10 10 0 0 0 .01.291A10 10 0 0 1 12 2.5a10 10 0 0 1 9.99 9.709A10 10 0 0 0 22 12 10 10 0 0 0 12 2z"/><path style="opacity:.2" d="M11.818 5.503a6.995 6.995 0 0 0-5.057 2.35 7.01 7.01 0 0 0 .033 9.33 7.028 7.028 0 0 0 9.284 1.02c1.09-.775-.075-2.407-1.163-1.63a5 5 0 0 1-6.632-.727A4.988 4.988 0 0 1 8.26 9.18a5 5 0 0 1 6.627-.775c1.098.801 2.278-.875 1.152-1.637a6.992 6.992 0 0 0-4.22-1.266zM16 9v2.5h-3a1 1 0 0 0 0 2h3V16l4.5-3.5z"/><path style="fill:#f4f4f7" d="M11.818 5.003a6.995 6.995 0 0 0-5.057 2.35 7.01 7.01 0 0 0 .033 9.33 7.028 7.028 0 0 0 9.284 1.02c1.09-.775-.075-2.407-1.163-1.63a5 5 0 0 1-6.632-.727A4.988 4.988 0 0 1 8.26 8.68a5 5 0 0 1 6.627-.774c1.098.801 2.278-.875 1.152-1.637a6.992 6.992 0 0 0-4.22-1.266zM16 8.5V11h-3a1 1 0 0 0 0 2h3v2.5l4.5-3.5z"/></svg>
